dist/assets/img/advantages/safe.svg

<svg width="149" height="201" viewBox="0 0 149 201" fill="none" xmlns="http://www.w3.org/2000/svg">
<path d="M120.279 59.421C92.0615 76.7188 71.7231 98.565 63.4653 108.274L42.2626 91.6635C41.7011 91.2598 30.062 101.593 30.3712 101.915L68.9852 141.172C69.2691 141.494 69.6602 141.639 70.0829 141.639C70.1586 141.639 70.2785 141.639 70.3794 141.614C70.8841 141.5 71.313 141.16 71.5023 140.655C77.7224 124.751 98.2628 91.4553 124.493 67.3066C124.96 66.865 125.124 66.1711 124.866 65.5718C124.859 65.5654 120.67 59.1813 120.279 59.421Z" fill="black"/>
<path d="M145.601 24.6739C87.1347 24.6739 77.243 2.48071 77.1547 2.27253C76.7257 1.18747 75.6659 0.462001 74.4673 0.436768C74.4673 0.436768 74.4421 0.436768 74.4168 0.436768C73.2561 0.436768 72.1836 1.16224 71.7168 2.22206C71.6474 2.45547 61.5413 24.6739 3.2953 24.6739C1.66772 24.6739 0.380798 25.9923 0.380798 27.582V127.029C0.380798 167.737 70.3037 198.838 73.2624 200.144C73.6535 200.314 74.0257 200.377 74.4484 200.377C74.8332 200.377 75.2496 200.314 75.6217 200.144C78.6056 198.838 148.516 167.737 148.516 127.029V27.582C148.503 25.9923 147.21 24.6739 145.601 24.6739ZM132.429 121.244C132.429 153.095 77.6846 177.465 75.3568 178.474C75.0729 178.619 74.7386 178.67 74.4421 178.67C74.1203 178.67 73.8238 178.619 73.521 178.474C71.2184 177.465 16.4547 153.095 16.4547 121.244V43.4037C16.4547 42.1483 17.4704 41.1137 18.7384 41.1137C64.3422 41.1137 72.2467 23.7276 72.3224 23.5573C72.682 22.7182 73.5147 22.1505 74.4294 22.1505C74.4421 22.1505 74.4673 22.1505 74.4673 22.1505C75.4009 22.1631 76.2274 22.7308 76.5617 23.5951C76.6374 23.7528 84.3842 41.1137 130.146 41.1137C131.414 41.1137 132.423 42.1483 132.423 43.4037L132.429 121.244Z" fill="black"/>
</svg>

<svg width="149" height="201" fill="none" xmlns="http://www.w3.org/2000/svg"><path d="M120.279 59.421c-28.218 17.298-48.556 39.144-56.814 48.853l-21.202-16.61c-.562-.404-12.201 9.929-11.892 10.251l38.614 39.257c.284.322.675.467 1.098.467.076 0 .195 0 .296-.025a1.542 1.542 0 001.123-.959c6.22-15.904 26.76-49.2 52.991-73.348a1.554 1.554 0 00.373-1.735c-.007-.007-4.196-6.39-4.587-6.151z" fill="#000"/><path d="M145.601 24.674c-58.466 0-68.358-22.193-68.446-22.401-.43-1.086-1.49-1.811-2.688-1.836h-.05c-1.16 0-2.233.725-2.7 1.785-.07.233-10.176 22.452-68.422 22.452a2.91 2.91 0 00-2.914 2.908v99.447c0 40.708 69.923 71.809 72.881 73.115.391.17.764.233 1.186.233a2.85 2.85 0 001.174-.233c2.984-1.306 72.894-32.407 72.894-73.115V27.582c-.013-1.59-1.306-2.908-2.915-2.908zm-13.172 96.57c0 31.851-54.744 56.221-57.072 57.23-.284.145-.618.196-.915.196-.322 0-.618-.051-.921-.196-2.303-1.009-57.066-25.379-57.066-57.23v-77.84a2.288 2.288 0 012.283-2.29c45.604 0 53.509-17.386 53.584-17.557a2.315 2.315 0 012.107-1.406h.038c.934.012 1.76.58 2.095 1.444.075.158 7.822 17.519 53.584 17.519a2.283 2.283 0 012.277 2.29l.006 77.84z" fill="#000"/></svg>
